X: 31961
T: Peat-Fire Flame, The
R: polka
M: 2/4
K: Dminor
df cd/c/|AG A2|A4-|A4||
D>E FE|DC A2|AG GF/G/|AG GA|
D>E FE|DC AA/G/|FD EC|D2 D2||
F>G Af/e/|dc2A|AG GF/G/|AG GA|
F>G Af/e/|dc A>G|FD EC|D2 D2||

